X:723
T:Pearl, The
C:Joe Buchanan's Scottish Tome - Page 495.0
I:495 0
Z:Carl Allison
R:Reel
L:1/4
M:4/4
K:D
D/E/ | F2 E2 | D2 d e | f2 A> F | A2 B c |
d2 c> D | B2 A D/E/ | F2 E> D |1 B,3 :|2 B,2 |]
|: d/e/ | f2 A> F | A2 B c | d2 D> E | F2 E D |
D2 B> A | F2 D> E | F2 E> D | B,2 :|
%
W:Errata: Added repeat at beginning of part 2.

